X:1
T:Mrs Colonel Forbes' Strathspey
T:Mrs Colonel Forbes' Strathspey
T:William Marshall
C:William Marshall
%%score { 1 2 }
L:1/8
M:4/4
K:C
V:1 treble 
V:2 bass 
V:1
 e | c2 (G>E) Dd-d>[GB] | c<GTA>G c2 (ce) | c>G A/G/F/E/ Dd-d>e | C<CE>G c2 c :| e | %6
 c>ge>g a/g/f/e/ de | c<ge<g c<ge<g | f<ae<g Td>c d<e | (G<c)(c>d){f} e2 (de) | %10
 c>ge>g a/g/f/e/ de | c<ge<g c<af<a | g<c'e<g d>c Td<e | (G<c)(c>d){f} e2 d |] %14
V:2
 z | c2 c2 g2 g2 | c2 c2 c2 c2 | c2 c2 g2 g2 | c2 g2 c2 c :| z | c'2 c'2 c'2 g2 | c'2 c'2 c'2 c'2 | %8
 d'2 c'2 g2 g2 | c'2 g2 c2 c2 | c'2 c'2 c'2 g2 | c'2 c'2 f2 f2 | e2 c2 g2 g2 | c'2 g2 c2 g |] %14

